incomeartour/img/icons/bus.svg

<svg width="25" height="27" viewBox="0 0 25 27" fill="none" xmlns="http://www.w3.org/2000/svg">
<path d="M17.9241 5.45285L19.117 13.406H13.0446H11.8396C11.7072 13.2639 11.5277 12.5524 11.3405 12.5524L8.87002 12.2068V0.908203H15.4385C16.4736 0.908203 17.3571 1.71127 17.5272 2.80696L17.6969 3.93797H20.1506C20.1598 3.93777 20.169 3.93777 20.1782 3.93797H22.3448C22.8495 3.93797 23.2841 4.32024 23.383 4.85131L24.3006 9.77468C24.4153 10.39 24.0435 10.9885 23.4701 11.1116C23.4017 11.1263 23.3321 11.1337 23.2624 11.1337H21.5118C21.0071 11.1337 20.5725 10.7514 20.4736 10.2203L19.585 5.45285H17.9241ZM7.45831 5.45285V10.3762H0.39978V5.45285H7.45831ZM0.39978 1.66564C0.39978 1.24732 0.715801 0.908203 1.10563 0.908203H7.45831V5.45285H0.39978V1.66564ZM7.45831 10.3762V15.6783H0.39978V10.3762H7.45831ZM19.4578 15.6783H8.87002V11.8911H11.0481L12.2531 13.1841C12.3855 13.3262 12.565 13.406 12.7522 13.406H19.117L19.4578 15.6783ZM9.57587 26.6612C7.82162 26.6612 6.39953 25.1352 6.39953 23.2527C6.39953 21.3703 7.82162 19.8442 9.57587 19.8442C11.3301 19.8442 12.7522 21.3703 12.7522 23.2527C12.7522 25.1352 11.3301 26.6612 9.57587 26.6612Z" fill="black"/>
<path d="M7.45831 15.6783H0.39978V24.0102C0.39978 24.4285 0.715801 24.7676 1.10563 24.7676H5.58174C5.42567 24.2938 5.34075 23.7839 5.34075 23.2527C5.34075 20.7428 7.23688 18.7081 9.57587 18.7081C11.9149 18.7081 13.811 20.7428 13.811 23.2527C13.811 23.7839 13.7261 24.2938 13.57 24.7676H17.1437C18.2175 24.7676 19.1213 23.9051 19.2467 22.7608L19.2999 21.3591L19.3573 19.8442L19.4578 17.1932H7.45831V15.6783Z" fill="black"/>
</svg>

<svg width="25" height="27" fill="none" xmlns="http://www.w3.org/2000/svg"><path d="M17.924 5.453l1.193 7.953H11.84c-.133-.142-.312-.854-.5-.854l-2.47-.345V.908h6.569c1.035 0 1.918.803 2.088 1.899l.17 1.131h4.648c.505 0 .94.382 1.038.913l.918 4.924c.114.615-.257 1.213-.83 1.337a.988.988 0 01-.209.022h-1.75c-.505 0-.94-.383-1.038-.914l-.889-4.767h-1.66zm-10.466 0v4.923H.4V5.453h7.058zM.4 1.666c0-.419.316-.758.706-.758h6.352v4.545H.4V1.666zm7.058 8.71v5.302H.4v-5.302h7.058zm12 5.302H8.87v-3.787h2.178l1.205 1.293a.682.682 0 00.5.222h6.364l.34 2.272zM9.576 26.661c-1.754 0-3.176-1.526-3.176-3.408 0-1.883 1.422-3.409 3.176-3.409 1.754 0 3.176 1.526 3.176 3.409 0 1.882-1.422 3.408-3.176 3.408z" fill="#000"/><path d="M7.458 15.678H.4v8.332c0 .418.316.758.706.758h4.476a4.837 4.837 0 01-.241-1.515c0-2.51 1.896-4.545 4.235-4.545 2.339 0 4.235 2.035 4.235 4.545 0 .53-.085 1.04-.241 1.515h3.574c1.074 0 1.977-.863 2.103-2.007l.053-1.402.057-1.515.1-2.65H7.459v-1.516z" fill="#000"/></svg>
